Udemy/JS-Practis/Dice-Game/src/apple.svg

<svg width="16" height="16" viewBox="0 0 16 16" fill="none" xmlns="http://www.w3.org/2000/svg">
<g clip-path="url(#clip0_0_1)">
<path d="M11.182 0.00800701C11.148 -0.029993 9.923 0.023007 8.857 1.18001C7.791 2.33601 7.955 3.66201 7.979 3.69601C8.003 3.73001 9.499 3.78301 10.454 2.43801C11.409 1.09301 11.216 0.047007 11.182 0.00800701ZM14.496 11.741C14.448 11.645 12.171 10.507 12.383 8.31901C12.595 6.13001 14.058 5.53001 14.081 5.46501C14.104 5.40001 13.484 4.67501 12.827 4.30801C12.3446 4.04926 11.8107 3.90101 11.264 3.87401C11.156 3.87101 10.781 3.77901 10.01 3.99001C9.502 4.12901 8.357 4.57901 8.042 4.59701C7.726 4.61501 6.786 4.07501 5.775 3.93201C5.128 3.80701 4.442 4.06301 3.951 4.26001C3.461 4.45601 2.529 5.01401 1.877 6.49701C1.225 7.97901 1.566 10.327 1.81 11.057C2.054 11.786 2.435 12.981 3.083 13.853C3.659 14.837 4.423 15.52 4.742 15.752C5.061 15.984 5.961 16.138 6.585 15.819C7.087 15.511 7.993 15.334 8.351 15.347C8.708 15.36 9.412 15.501 10.133 15.886C10.704 16.083 11.244 16.001 11.785 15.781C12.326 15.56 13.109 14.722 14.023 13.023C14.37 12.233 14.528 11.806 14.496 11.741Z" fill="black"/>
<path d="M11.182 0.00800701C11.148 -0.029993 9.923 0.023007 8.857 1.18001C7.791 2.33601 7.955 3.66201 7.979 3.69601C8.003 3.73001 9.499 3.78301 10.454 2.43801C11.409 1.09301 11.216 0.047007 11.182 0.00800701ZM14.496 11.741C14.448 11.645 12.171 10.507 12.383 8.31901C12.595 6.13001 14.058 5.53001 14.081 5.46501C14.104 5.40001 13.484 4.67501 12.827 4.30801C12.3446 4.04926 11.8107 3.90101 11.264 3.87401C11.156 3.87101 10.781 3.77901 10.01 3.99001C9.502 4.12901 8.357 4.57901 8.042 4.59701C7.726 4.61501 6.786 4.07501 5.775 3.93201C5.128 3.80701 4.442 4.06301 3.951 4.26001C3.461 4.45601 2.529 5.01401 1.877 6.49701C1.225 7.97901 1.566 10.327 1.81 11.057C2.054 11.786 2.435 12.981 3.083 13.853C3.659 14.837 4.423 15.52 4.742 15.752C5.061 15.984 5.961 16.138 6.585 15.819C7.087 15.511 7.993 15.334 8.351 15.347C8.708 15.36 9.412 15.501 10.133 15.886C10.704 16.083 11.244 16.001 11.785 15.781C12.326 15.56 13.109 14.722 14.023 13.023C14.37 12.233 14.528 11.806 14.496 11.741Z" fill="#3BB8F0"/>
</g>
<defs>
<clipPath id="clip0_0_1">
<rect width="16" height="16" fill="white"/>
</clipPath>
</defs>
</svg>

<svg xmlns="http://www.w3.org/2000/svg" width="16" height="16" fill="currentColor" class="bi bi-apple" viewBox="0 0 16 16">
  <path d="M11.182.008C11.148-.03 9.923.023 8.857 1.18c-1.066 1.156-.902 2.482-.878 2.516.024.034 1.52.087 2.475-1.258.955-1.345.762-2.391.728-2.43Zm3.314 11.733c-.048-.096-2.325-1.234-2.113-3.422.212-2.189 1.675-2.789 1.698-2.854.023-.065-.597-.79-1.254-1.157a3.692 3.692 0 0 0-1.563-.434c-.108-.003-.483-.095-1.254.116-.508.139-1.653.589-1.968.607-.316.018-1.256-.522-2.267-.665-.647-.125-1.333.131-1.824.328-.49.196-1.422.754-2.074 2.237-.652 1.482-.311 3.83-.067 4.56.244.729.625 1.924 1.273 2.796.576.984 1.34 1.667 1.659 1.899.319.232 1.219.386 1.843.067.502-.308 1.408-.485 1.766-.472.357.013 1.061.154 1.782.539.571.197 1.111.115 1.652-.105.541-.221 1.324-1.059 2.238-2.758.347-.79.505-1.217.473-1.282Z"/>
  <path d="M11.182.008C11.148-.03 9.923.023 8.857 1.18c-1.066 1.156-.902 2.482-.878 2.516.024.034 1.52.087 2.475-1.258.955-1.345.762-2.391.728-2.43Zm3.314 11.733c-.048-.096-2.325-1.234-2.113-3.422.212-2.189 1.675-2.789 1.698-2.854.023-.065-.597-.79-1.254-1.157a3.692 3.692 0 0 0-1.563-.434c-.108-.003-.483-.095-1.254.116-.508.139-1.653.589-1.968.607-.316.018-1.256-.522-2.267-.665-.647-.125-1.333.131-1.824.328-.49.196-1.422.754-2.074 2.237-.652 1.482-.311 3.83-.067 4.56.244.729.625 1.924 1.273 2.796.576.984 1.34 1.667 1.659 1.899.319.232 1.219.386 1.843.067.502-.308 1.408-.485 1.766-.472.357.013 1.061.154 1.782.539.571.197 1.111.115 1.652-.105.541-.221 1.324-1.059 2.238-2.758.347-.79.505-1.217.473-1.282Z"/>
</svg>
